style-img/Slide 16_9 - 4.svg

<svg width="1440" height="810" fill="none" xmlns="http://www.w3.org/2000/svg"><path d="M336.861 219.968h-10.896v5.328h5.376v12.336h5.52v-17.664Zm0 15.408h-4.992c-2.112 1.776-4.464 3.504-6.48 4.8l2.736 5.712c2.4-2.064 4.416-3.888 6.336-5.76 2.88 3.696 6.768 5.088 12.528 5.328 5.856.288 16.08.192 22.08-.096.24-1.68 1.152-4.32 1.776-5.616-6.672.528-18.048.672-23.808.384-4.944-.192-8.352-1.584-10.176-4.752Zm-10.752-29.664c2.736 2.352 5.952 5.664 7.248 8.016l4.752-3.648c-1.488-2.256-4.848-5.472-7.584-7.584l-4.416 3.216Zm11.52 8.016v3.984h32.304v-3.984h-32.304Zm9.168 8.688h13.776v2.448h-13.776v-2.448Zm-5.328-3.216v8.88h24.816v-8.88h-24.816Zm10.32 6.096c-2.928 3.6-8.496 6.576-13.92 8.352 1.056 1.008 2.64 3.12 3.312 4.224 5.712-2.304 11.808-6.192 15.408-10.896l-4.8-1.68Zm13.296.768c-1.488 1.536-4.128 3.792-6.096 5.04l3.024 2.304c2.064-1.104 4.656-2.832 7.152-4.56l-4.08-2.784Zm-9.504 1.2-4.128 1.2c3.168 5.04 8.64 8.688 15.408 10.272.672-1.344 2.064-3.312 3.168-4.32-6.336-1.008-11.76-3.552-14.448-7.152Zm3.984-21.552h3.072v3.312h-3.072v-3.312Zm-7.392 0h3.024v3.312h-3.024v-3.312Zm-7.296 0h2.976v3.312h-2.976v-3.312Zm-4.848-3.216v9.792h27.696v-9.792h-27.696Zm10.464 23.808v12.912h5.472v-12.912h-5.472Zm24.432-4.56v5.088h42.528v-5.088h-42.528Zm21.504 8.688v4.944h17.952v-4.944h-17.952Zm-2.688-6.096v17.76h5.808v-17.76h-5.808Zm-7.44 7.68-4.752 1.536c3.936 10.032 10.512 12 21.552 12h13.728c.288-1.68 1.152-4.224 1.968-5.472-3.456.096-12.72.144-15.36.096-8.4-.048-14.496-1.152-17.136-8.16Zm-4.176-4.176c-1.104 6.432-4.032 11.52-8.928 14.544 1.248.864 3.456 2.976 4.32 4.032 5.328-3.792 8.784-9.84 10.368-17.76l-5.76-.816Zm2.832-14.688h22.032v2.4h-22.032v-2.4Zm0-6.192h22.032v2.4h-22.032v-2.4Zm-5.568-4.08v16.752h33.456V202.88h-33.456Zm43.705 35.862c0-1 .344-1.836 1.031-2.508.703-.672 1.633-1.007 2.789-1.007 1.156 0 2.078.335 2.766 1.007.703.672 1.054 1.508 1.054 2.508s-.351 1.836-1.054 2.508c-.688.672-1.61 1.008-2.766 1.008s-2.086-.336-2.789-1.008c-.687-.672-1.031-1.508-1.031-2.508Zm13.922 0c0-1 .343-1.836 1.031-2.508.703-.672 1.633-1.007 2.789-1.007 1.156 0 2.078.335 2.766 1.007.703.672 1.054 1.508 1.054 2.508s-.351 1.836-1.054 2.508c-.688.672-1.61 1.008-2.766 1.008s-2.086-.336-2.789-1.008c-.688-.672-1.031-1.508-1.031-2.508Zm13.922 0c0-1 .343-1.836 1.031-2.508.703-.672 1.633-1.007 2.789-1.007 1.156 0 2.078.335 2.765 1.007.704.672 1.055 1.508 1.055 2.508s-.351 1.836-1.055 2.508c-.687.672-1.609 1.008-2.765 1.008-1.156 0-2.086-.336-2.789-1.008-.688-.672-1.031-1.508-1.031-2.508Zm44.569-37.35c-1.632 6.672-4.56 13.296-8.208 17.424 1.296.864 3.6 2.736 4.608 3.744 3.84-4.752 7.248-12.288 9.264-19.872l-5.664-1.296Zm-1.344 21.36c-1.104 5.328-3.168 10.8-5.856 14.16 1.344.72 3.792 2.208 4.896 3.12 2.688-3.888 5.184-10.032 6.528-16.128l-5.568-1.152Zm2.4-12.912-2.16 5.328h21.84v-5.328h-19.68Zm5.52 2.352v27.648c0 .624-.24.768-.864.768-.672 0-2.688.048-4.704-.048.816 1.584 1.68 4.128 1.968 5.808 3.072 0 5.424-.24 7.104-1.152 1.728-.96 2.208-2.544 2.208-5.328v-27.696h-5.712ZM509.475 224c2.352 4.944 4.368 11.568 4.896 15.888l5.52-1.92c-.672-4.368-2.736-10.752-5.232-15.696L509.475 224Zm5.232-14.16v.768c-.336 3.36-.864 7.632-1.296 10.224l4.944.864c.624-2.88 1.488-7.344 2.064-11.28l-4.032-.72-.912.144h-.768Zm-29.472-8.4c-2.448 6.864-6.624 13.68-10.992 18.048 1.008 1.392 2.544 4.56 3.072 5.952 5.232-5.472 10.224-14.112 13.344-22.32l-5.424-1.68Zm-4.656 13.248v31.584h5.52v-37.008l-.048-.048-5.472 5.472Zm54 5.28h-10.896v5.328h5.376v12.336h5.52v-17.664Zm0 15.408h-4.992c-2.112 1.776-4.464 3.504-6.48 4.8l2.736 5.712c2.4-2.064 4.416-3.888 6.336-5.76 2.88 3.696 6.768 5.088 12.528 5.328 5.856.288 16.08.192 22.08-.096.24-1.68 1.152-4.32 1.776-5.616-6.672.528-18.048.672-23.808.384-4.944-.192-8.352-1.584-10.176-4.752Zm-10.752-29.664c2.736 2.352 5.952 5.664 7.248 8.016l4.752-3.648c-1.488-2.256-4.848-5.472-7.584-7.584l-4.416 3.216Zm11.52 8.016v3.984h32.304v-3.984h-32.304Zm9.168 8.688h13.776v2.448h-13.776v-2.448Zm-5.328-3.216v8.88h24.816v-8.88h-24.816Zm10.32 6.096c-2.928 3.6-8.496 6.576-13.92 8.352 1.056 1.008 2.64 3.12 3.312 4.224 5.712-2.304 11.808-6.192 15.408-10.896l-4.8-1.68Zm13.296.768c-1.488 1.536-4.128 3.792-6.096 5.04l3.024 2.304c2.064-1.104 4.656-2.832 7.152-4.56l-4.08-2.784Zm-9.504 1.2-4.128 1.2c3.168 5.04 8.64 8.688 15.408 10.272.672-1.344 2.064-3.312 3.168-4.32-6.336-1.008-11.76-3.552-14.448-7.152Zm3.984-21.552h3.072v3.312h-3.072v-3.312Zm-7.392 0h3.024v3.312h-3.024v-3.312Zm-7.296 0h2.976v3.312h-2.976v-3.312Zm-4.848-3.216v9.792h27.696v-9.792h-27.696Zm10.464 23.808v12.912h5.472v-12.912h-5.472Zm24.288-18.384v5.52h42.816v-5.52h-42.816Zm15.648 15.552v5.328h25.152v-5.328h-25.152Zm-1.872 16.32v5.328h28.848v-5.328h-28.848Zm11.664-24.288v27.12h5.808v-27.12h-5.808Zm-10.32-14.304c-2.496 9.696-7.968 20.448-16.656 26.112.864 1.392 2.208 3.936 2.784 5.568 10.272-7.008 16.32-18.672 19.872-30.24l-6-1.44Zm-9.6 20.112v24.912h5.808v-24.912h-5.808Zm64.896-7.392h13.344v2.64h-13.344v-2.64Zm0-6.432h13.344v2.592h-13.344v-2.592Zm-5.184-4.08v17.28h23.952v-17.28h-23.952Zm3.6 16.032c-1.68 4.176-5.088 8.688-10.656 11.952 1.152.768 2.88 2.736 3.6 4.032 6.384-4.128 10.176-9.408 12.624-15.072l-5.568-.912Zm1.392 3.936-3.264 4.704h20.304v-4.704h-17.04Zm15.072 0v.912c-.336 11.856-.768 16.08-1.536 17.088-.432.528-.816.672-1.44.672-.768 0-2.208-.048-3.792-.24.624 1.248 1.2 3.168 1.248 4.464 2.16.048 4.08.048 5.328-.144 1.344-.192 2.4-.624 3.312-1.824 1.248-1.632 1.776-6.24 2.208-18.816.048-.672.048-2.112.048-2.112h-5.376Zm-20.304 5.52v8.976c0 4.464 1.056 5.856 5.952 5.856h5.904c3.456 0 4.8-1.152 5.424-5.568-1.392-.288-3.408-1.056-4.368-1.824-.144 2.496-.384 2.88-1.584 2.88h-4.704c-1.584 0-1.824-.192-1.824-1.44v-8.88h-4.8Zm12 .576c-2.208 1.488-6.096 3.072-9.6 4.08.576.96 1.296 2.544 1.536 3.456 3.936-.96 8.496-2.4 11.952-4.224l-3.888-3.312Zm-25.344-23.424v5.184h5.568v16.944h-5.568v5.28h10.416v-27.408h-10.416Zm-3.216 0v31.392h4.992v-31.392h-4.992Zm54.48-3.792c-1.536 6.624-4.464 13.2-8.256 17.136 1.536.624 4.32 2.064 5.568 2.928 3.6-4.464 6.816-11.52 8.688-18.912l-6-1.152Zm.864 7.104-1.68 5.664h34.464v-5.664h-32.784Zm-8.304 15.264v5.712h43.872v-5.712h-43.872Zm19.44-23.376v45.072h6.144v-45.072h-6.144Zm28.224 9.552v5.328h15.552V210.8h-15.552Zm6.48-9.552c-1.488 9.552-4.128 22.224-6.192 29.808l4.704 2.496c2.256-8.64 5.04-21.504 6.912-31.728l-5.424-.576Zm-3.648 29.04c4.56 2.976 10.08 7.536 12.528 10.848l3.408-4.608c-2.544-3.264-8.256-7.488-12.816-10.32l-3.12 4.08Zm10.704-19.488v1.056c-.912 15.168-5.232 25.776-13.44 30.048 1.152 1.104 2.688 3.168 3.456 4.56 9.6-5.856 14.256-16.464 15.408-35.232l-3.456-.576-1.008.144h-.96Zm5.184-7.008v5.184h15.696v-5.184h-15.696Zm16.08 13.248-.72 5.184h6.912v-5.184h-6.192Zm4.272 0v1.008c-.48 14.928-1.152 20.784-2.304 22.08-.528.576-1.008.672-1.824.672-1.008 0-3.216 0-5.52-.192.912 1.488 1.584 3.792 1.68 5.376 2.496.144 4.896.144 6.432-.096 1.68-.24 2.832-.72 4.032-2.256 1.632-1.968 2.208-8.16 2.832-24.24a85.73 85.73 0 0 0 .096-2.352h-5.424Zm-16.08-11.472c-.096 14.16.048 28.416-6.864 37.008 1.44.864 3.264 2.544 4.176 3.84 7.68-9.744 8.16-25.344 8.352-40.848h-5.664Zm9.984-1.776c-.24 6.48-.96 14.832-1.776 20.064l5.232.384c.72-5.28 1.44-13.728 1.824-20.448h-5.28Zm33.552 25.872h6.24c-.768-6.624 9.744-7.488 9.744-14.496 0-6.384-5.088-9.648-12.048-9.648-5.136 0-9.36 2.352-12.432 5.904l3.936 3.6c2.352-2.448 4.752-3.792 7.68-3.792 3.792 0 6.096 1.632 6.096 4.56 0 4.656-10.224 6.336-9.216 13.872Zm3.168 12.816c2.4 0 4.224-1.776 4.224-4.272 0-2.496-1.824-4.224-4.224-4.224-2.448 0-4.272 1.728-4.272 4.224 0 2.496 1.776 4.272 4.272 4.272Z" fill="#424242"/></svg>

<svg width="1440" height="810" viewBox="0 0 1440 810" fill="none" xmlns="http://www.w3.org/2000/svg">
<path d="M336.861 219.968H325.965V225.296H331.341V237.632H336.861V219.968ZM336.861 235.376H331.869C329.757 237.152 327.405 238.88 325.389 240.176L328.125 245.888C330.525 243.824 332.541 242 334.461 240.128C337.341 243.824 341.229 245.216 346.989 245.456C352.845 245.744 363.069 245.648 369.069 245.36C369.309 243.68 370.221 241.04 370.845 239.744C364.173 240.272 352.797 240.416 347.037 240.128C342.093 239.936 338.685 238.544 336.861 235.376ZM326.109 205.712C328.845 208.064 332.061 211.376 333.357 213.728L338.109 210.08C336.621 207.824 333.261 204.608 330.525 202.496L326.109 205.712ZM337.629 213.728V217.712H369.933V213.728H337.629ZM346.797 222.416H360.573V224.864H346.797V222.416ZM341.469 219.2V228.08H366.285V219.2H341.469ZM351.789 225.296C348.861 228.896 343.293 231.872 337.869 233.648C338.925 234.656 340.509 236.768 341.181 237.872C346.893 235.568 352.989 231.68 356.589 226.976L351.789 225.296ZM365.085 226.064C363.597 227.6 360.957 229.856 358.989 231.104L362.013 233.408C364.077 232.304 366.669 230.576 369.165 228.848L365.085 226.064ZM355.581 227.264L351.453 228.464C354.621 233.504 360.093 237.152 366.861 238.736C367.533 237.392 368.925 235.424 370.029 234.416C363.693 233.408 358.269 230.864 355.581 227.264ZM359.565 205.712H362.637V209.024H359.565V205.712ZM352.173 205.712H355.197V209.024H352.173V205.712ZM344.877 205.712H347.853V209.024H344.877V205.712ZM340.029 202.496V212.288H367.725V202.496H340.029ZM350.493 226.304V239.216H355.965V226.304H350.493ZM374.925 221.744V226.832H417.453V221.744H374.925ZM396.429 230.432V235.376H414.381V230.432H396.429ZM393.741 224.336V242.096H399.549V224.336H393.741ZM386.301 232.016L381.549 233.552C385.485 243.584 392.061 245.552 403.101 245.552H416.829C417.117 243.872 417.981 241.328 418.797 240.08C415.341 240.176 406.077 240.224 403.437 240.176C395.037 240.128 388.941 239.024 386.301 232.016ZM382.125 227.84C381.021 234.272 378.093 239.36 373.197 242.384C374.445 243.248 376.653 245.36 377.517 246.416C382.845 242.624 386.301 236.576 387.885 228.656L382.125 227.84ZM384.957 213.152H406.989V215.552H384.957V213.152ZM384.957 206.96H406.989V209.36H384.957V206.96ZM379.389 202.88V219.632H412.845V202.88H379.389ZM423.094 238.742C423.094 237.742 423.438 236.906 424.125 236.234C424.828 235.562 425.758 235.227 426.914 235.227C428.07 235.227 428.992 235.562 429.68 236.234C430.383 236.906 430.734 237.742 430.734 238.742C430.734 239.742 430.383 240.578 429.68 241.25C428.992 241.922 428.07 242.258 426.914 242.258C425.758 242.258 424.828 241.922 424.125 241.25C423.438 240.578 423.094 239.742 423.094 238.742ZM437.016 238.742C437.016 237.742 437.359 236.906 438.047 236.234C438.75 235.562 439.68 235.227 440.836 235.227C441.992 235.227 442.914 235.562 443.602 236.234C444.305 236.906 444.656 237.742 444.656 238.742C444.656 239.742 444.305 240.578 443.602 241.25C442.914 241.922 441.992 242.258 440.836 242.258C439.68 242.258 438.75 241.922 438.047 241.25C437.359 240.578 437.016 239.742 437.016 238.742ZM450.938 238.742C450.938 237.742 451.281 236.906 451.969 236.234C452.672 235.562 453.602 235.227 454.758 235.227C455.914 235.227 456.836 235.562 457.523 236.234C458.227 236.906 458.578 237.742 458.578 238.742C458.578 239.742 458.227 240.578 457.523 241.25C456.836 241.922 455.914 242.258 454.758 242.258C453.602 242.258 452.672 241.922 451.969 241.25C451.281 240.578 450.938 239.742 450.938 238.742ZM495.507 201.392C493.875 208.064 490.947 214.688 487.299 218.816C488.595 219.68 490.899 221.552 491.907 222.56C495.747 217.808 499.155 210.272 501.171 202.688L495.507 201.392ZM494.163 222.752C493.059 228.08 490.995 233.552 488.307 236.912C489.651 237.632 492.099 239.12 493.203 240.032C495.891 236.144 498.387 230 499.731 223.904L494.163 222.752ZM496.563 209.84L494.403 215.168H516.243V209.84H496.563ZM502.083 212.192V239.84C502.083 240.464 501.843 240.608 501.219 240.608C500.547 240.608 498.531 240.656 496.515 240.56C497.331 242.144 498.195 244.688 498.483 246.368C501.555 246.368 503.907 246.128 505.587 245.216C507.315 244.256 507.795 242.672 507.795 239.888V212.192H502.083ZM509.475 224C511.827 228.944 513.843 235.568 514.371 239.888L519.891 237.968C519.219 233.6 517.155 227.216 514.659 222.272L509.475 224ZM514.707 209.84V210.608C514.371 213.968 513.843 218.24 513.411 220.832L518.355 221.696C518.979 218.816 519.843 214.352 520.419 210.416L516.387 209.696L515.475 209.84H514.707ZM485.235 201.44C482.787 208.304 478.611 215.12 474.243 219.488C475.251 220.88 476.787 224.048 477.315 225.44C482.547 219.968 487.539 211.328 490.659 203.12L485.235 201.44ZM480.579 214.688V246.272H486.099V209.264L486.051 209.216L480.579 214.688ZM534.579 219.968H523.683V225.296H529.059V237.632H534.579V219.968ZM534.579 235.376H529.587C527.475 237.152 525.123 238.88 523.107 240.176L525.843 245.888C528.243 243.824 530.259 242 532.179 240.128C535.059 243.824 538.947 245.216 544.707 245.456C550.563 245.744 560.787 245.648 566.787 245.36C567.027 243.68 567.939 241.04 568.563 239.744C561.891 240.272 550.515 240.416 544.755 240.128C539.811 239.936 536.403 238.544 534.579 235.376ZM523.827 205.712C526.563 208.064 529.779 211.376 531.075 213.728L535.827 210.08C534.339 207.824 530.979 204.608 528.243 202.496L523.827 205.712ZM535.347 213.728V217.712H567.651V213.728H535.347ZM544.515 222.416H558.291V224.864H544.515V222.416ZM539.187 219.2V228.08H564.003V219.2H539.187ZM549.507 225.296C546.579 228.896 541.011 231.872 535.587 233.648C536.643 234.656 538.227 236.768 538.899 237.872C544.611 235.568 550.707 231.68 554.307 226.976L549.507 225.296ZM562.803 226.064C561.315 227.6 558.675 229.856 556.707 231.104L559.731 233.408C561.795 232.304 564.387 230.576 566.883 228.848L562.803 226.064ZM553.299 227.264L549.171 228.464C552.339 233.504 557.811 237.152 564.579 238.736C565.251 237.392 566.643 235.424 567.747 234.416C561.411 233.408 555.987 230.864 553.299 227.264ZM557.283 205.712H560.355V209.024H557.283V205.712ZM549.891 205.712H552.915V209.024H549.891V205.712ZM542.595 205.712H545.571V209.024H542.595V205.712ZM537.747 202.496V212.288H565.443V202.496H537.747ZM548.211 226.304V239.216H553.683V226.304H548.211ZM572.499 207.92V213.44H615.315V207.92H572.499ZM588.147 223.472V228.8H613.299V223.472H588.147ZM586.275 239.792V245.12H615.123V239.792H586.275ZM597.939 215.504V242.624H603.747V215.504H597.939ZM587.619 201.2C585.123 210.896 579.651 221.648 570.963 227.312C571.827 228.704 573.171 231.248 573.747 232.88C584.019 225.872 590.067 214.208 593.619 202.64L587.619 201.2ZM578.019 221.312V246.224H583.827V221.312H578.019ZM642.915 213.92H656.259V216.56H642.915V213.92ZM642.915 207.488H656.259V210.08H642.915V207.488ZM637.731 203.408V220.688H661.683V203.408H637.731ZM641.331 219.44C639.651 223.616 636.243 228.128 630.675 231.392C631.827 232.16 633.555 234.128 634.275 235.424C640.659 231.296 644.451 226.016 646.899 220.352L641.331 219.44ZM642.723 223.376L639.459 228.08H659.763V223.376H642.723ZM657.795 223.376V224.288C657.459 236.144 657.027 240.368 656.259 241.376C655.827 241.904 655.443 242.048 654.819 242.048C654.051 242.048 652.611 242 651.027 241.808C651.651 243.056 652.227 244.976 652.275 246.272C654.435 246.32 656.355 246.32 657.603 246.128C658.947 245.936 660.003 245.504 660.915 244.304C662.163 242.672 662.691 238.064 663.123 225.488C663.171 224.816 663.171 223.376 663.171 223.376H657.795ZM637.491 228.896V237.872C637.491 242.336 638.547 243.728 643.443 243.728C644.403 243.728 648.339 243.728 649.347 243.728C652.803 243.728 654.147 242.576 654.771 238.16C653.379 237.872 651.363 237.104 650.403 236.336C650.259 238.832 650.019 239.216 648.819 239.216C647.907 239.216 644.787 239.216 644.115 239.216C642.531 239.216 642.291 239.024 642.291 237.776V228.896H637.491ZM649.491 229.472C647.283 230.96 643.395 232.544 639.891 233.552C640.467 234.512 641.187 236.096 641.427 237.008C645.363 236.048 649.923 234.608 653.379 232.784L649.491 229.472ZM624.147 206.048V211.232H629.715V228.176H624.147V233.456H634.563V206.048H624.147ZM620.931 206.048V237.44H625.923V206.048H620.931ZM675.411 202.256C673.875 208.88 670.947 215.456 667.155 219.392C668.691 220.016 671.475 221.456 672.723 222.32C676.323 217.856 679.539 210.8 681.411 203.408L675.411 202.256ZM676.275 209.36L674.595 215.024H709.059V209.36H676.275ZM667.971 224.624V230.336H711.843V224.624H667.971ZM687.411 201.248V246.32H693.555V201.248H687.411ZM715.635 210.8V216.128H731.187V210.8H715.635ZM722.115 201.248C720.627 210.8 717.987 223.472 715.923 231.056L720.627 233.552C722.883 224.912 725.667 212.048 727.539 201.824L722.115 201.248ZM718.467 230.288C723.027 233.264 728.547 237.824 730.995 241.136L734.403 236.528C731.859 233.264 726.147 229.04 721.587 226.208L718.467 230.288ZM729.171 210.8V211.856C728.259 227.024 723.939 237.632 715.731 241.904C716.883 243.008 718.419 245.072 719.187 246.464C728.787 240.608 733.443 230 734.595 211.232L731.139 210.656L730.131 210.8H729.171ZM734.355 203.792V208.976H750.051V203.792H734.355ZM750.435 217.04L749.715 222.224H756.627V217.04H750.435ZM754.707 217.04V218.048C754.227 232.976 753.555 238.832 752.403 240.128C751.875 240.704 751.395 240.8 750.579 240.8C749.571 240.8 747.363 240.8 745.059 240.608C745.971 242.096 746.643 244.4 746.739 245.984C749.235 246.128 751.635 246.128 753.171 245.888C754.851 245.648 756.003 245.168 757.203 243.632C758.835 241.664 759.411 235.472 760.035 219.392C760.083 218.72 760.131 217.04 760.131 217.04H754.707ZM738.627 205.568C738.531 219.728 738.675 233.984 731.763 242.576C733.203 243.44 735.027 245.12 735.939 246.416C743.619 236.672 744.099 221.072 744.291 205.568H738.627ZM748.611 203.792C748.371 210.272 747.651 218.624 746.835 223.856L752.067 224.24C752.787 218.96 753.507 210.512 753.891 203.792H748.611ZM782.163 229.664H788.403C787.635 223.04 798.147 222.176 798.147 215.168C798.147 208.784 793.059 205.52 786.099 205.52C780.963 205.52 776.739 207.872 773.667 211.424L777.603 215.024C779.955 212.576 782.355 211.232 785.283 211.232C789.075 211.232 791.379 212.864 791.379 215.792C791.379 220.448 781.155 222.128 782.163 229.664ZM785.331 242.48C787.731 242.48 789.555 240.704 789.555 238.208C789.555 235.712 787.731 233.984 785.331 233.984C782.883 233.984 781.059 235.712 781.059 238.208C781.059 240.704 782.835 242.48 785.331 242.48Z" fill="#424242"/>
</svg>
